svgs/solid/square-r.svg

<svg xmlns="http://www.w3.org/2000/svg" viewBox="0 0 448 512"><!-- Font Awesome Pro 6.0.0-alpha2 by @fontawesome - https://fontawesome.com License - https://fontawesome.com/license (Commercial License) --><path d="M384 32H64C28.654 32 0 60.654 0 96V416C0 451.346 28.654 480 64 480H384C419.346 480 448 451.346 448 416V96C448 60.654 419.346 32 384 32ZM323.406 345.891C331.219 356.609 328.844 371.609 318.125 379.406C313.844 382.516 308.906 384 304.031 384C296.594 384 289.281 380.578 284.594 374.109L221.969 288H176V360C176 373.25 165.25 384 152 384S128 373.25 128 360V152C128 138.75 138.75 128 152 128H256C300.125 128 336 163.891 336 208C336 244.195 311.688 274.5 278.641 284.338L323.406 345.891ZM256 176H176V240H256C273.656 240 288 225.641 288 208S273.656 176 256 176Z"/></svg>

<svg xmlns="http://www.w3.org/2000/svg" viewBox="0 0 448 512"><!--! Font Awesome Pro 6.0.0-alpha3 by @fontawesome - https://fontawesome.com License - https://fontawesome.com/license (Commercial License) --><path d="M384 32H64C28.65 32 0 60.65 0 96v320c0 35.35 28.65 64 64 64h320c35.35 0 64-28.65 64-64V96C448 60.65 419.3 32 384 32zM323.4 345.9c7.812 10.72 5.438 25.72-5.281 33.52C313.8 382.5 308.9 384 304 384c-7.438 0-14.75-3.422-19.44-9.891L221.1 288H176v72C176 373.3 165.3 384 152 384S128 373.3 128 360v-208C128 138.8 138.8 128 152 128H256c44.13 0 80 35.89 80 80c0 36.2-24.31 66.5-57.36 76.34L323.4 345.9zM256 176H176v64H256c17.66 0 32-14.36 32-32S273.7 176 256 176z"/></svg>
